svgs/solid/paw-simple.svg

<svg xmlns="http://www.w3.org/2000/svg" viewBox="0 0 448 512"><!--! Font Awesome Pro 6.2.0 by @fontawesome - https://fontawesome.com License - https://fontawesome.com/license (Commercial License) Copyright 2022 Fonticons, Inc. --><path d="M192 80c0 26.5-21.5 48-48 48s-48-21.5-48-48s21.5-48 48-48s48 21.5 48 48zM97.7 286c6.2-2.3 11.8-6.3 15-12.2l40-71.9c14.4-25.9 41.7-42 71.3-42s56.9 16.1 71.3 42l40 71.9c3.2 5.8 8.8 9.9 15 12.2c38.3 14 65.7 50.8 65.7 94c0 55.2-44.8 100-100 100c-21.2 0-40.8-6.6-56.9-17.8c-17.4-12-52.8-12-70.1 0C172.8 473.4 153.2 480 132 480C76.8 480 32 435.2 32 380c0-43.2 27.4-80 65.7-94zM304 128c-26.5 0-48-21.5-48-48s21.5-48 48-48s48 21.5 48 48s-21.5 48-48 48zm144 64c0 26.5-21.5 48-48 48s-48-21.5-48-48s21.5-48 48-48s48 21.5 48 48zM48 240c-26.5 0-48-21.5-48-48s21.5-48 48-48s48 21.5 48 48s-21.5 48-48 48z"/></svg>

<svg xmlns="http://www.w3.org/2000/svg" viewBox="0 0 448 512"><!--! Font Awesome Pro 6.1.2 by @fontawesome - https://fontawesome.com License - https://fontawesome.com/license (Commercial License) Copyright 2022 Fonticons, Inc. --><path d="M192 80C192 106.5 170.5 128 144 128C117.5 128 96 106.5 96 80C96 53.49 117.5 32 144 32C170.5 32 192 53.49 192 80zM97.72 286C103.1 283.8 109.5 279.7 112.7 273.9L152.7 201.1C167.1 176.1 194.4 159.1 224 159.1C253.6 159.1 280.9 176.1 295.3 201.1L335.3 273.9C338.5 279.7 344 283.8 350.3 286C388.6 300 416 336.8 416 380C416 435.2 371.2 480 316 480C294.8 480 275.2 473.4 259.1 462.2C241.7 450.2 206.3 450.2 188.9 462.2C172.8 473.4 153.2 480 131.1 480C76.77 480 31.1 435.2 31.1 380C31.1 336.8 59.38 300 97.72 286H97.72zM256 80C256 53.49 277.5 32 304 32C330.5 32 352 53.49 352 80C352 106.5 330.5 128 304 128C277.5 128 256 106.5 256 80zM448 192C448 218.5 426.5 240 400 240C373.5 240 352 218.5 352 192C352 165.5 373.5 144 400 144C426.5 144 448 165.5 448 192zM0 192C0 165.5 21.49 144 48 144C74.51 144 96 165.5 96 192C96 218.5 74.51 240 48 240C21.49 240 0 218.5 0 192z"/></svg>
